src/assets/duotone/MessageNotif.svg

<?xml version="1.0" encoding="UTF-8"?>
<svg width="24" height="24" viewBox="0 0 24 24" xmlns="http://www.w3.org/2000/svg">
 <path d="m20 6.75c1.5188 0 2.75-1.2312 2.75-2.75s-1.2312-2.75-2.75-2.75-2.75 1.2312-2.75 2.75 1.2312 2.75 2.75 2.75z"/>
 <path d="m20 8c-2.21 0-4-1.79-4-4 0-0.73 0.21-1.41 0.56-2h-9.56c-2.76 0-5 2.23-5 4.98v6.98c0 2.75 2.24 4.98 5 4.98h1.5c0.27 0 0.63 0.18 0.8 0.4l1.5 1.99c0.66 0.88 1.74 0.88 2.4 0l1.5-1.99c0.19-0.25 0.49-0.4 0.8-0.4h1.5c2.76 0 5-2.23 5-4.98v-6.52c-0.59 0.35-1.27 0.56-2 0.56z" opacity=".4"/>
 <path d="m12 12c-0.56 0-1-0.45-1-1s0.45-1 1-1 1 0.45 1 1-0.44 1-1 1z"/>
 <path d="m16 12c-0.56 0-1-0.45-1-1s0.45-1 1-1 1 0.45 1 1-0.44 1-1 1z"/>
 <path d="m8 12c-0.56 0-1-0.45-1-1s0.45-1 1-1 1 0.45 1 1-0.44 1-1 1z"/>
</svg>

<svg width="24" height="24" viewBox="0 0 24 24"  xmlns="http://www.w3.org/2000/svg">
<path d="M20 6.75C21.5188 6.75 22.75 5.51878 22.75 4C22.75 2.48122 21.5188 1.25 20 1.25C18.4812 1.25 17.25 2.48122 17.25 4C17.25 5.51878 18.4812 6.75 20 6.75Z" />
<path opacity="0.4" d="M20 8C17.79 8 16 6.21 16 4C16 3.27 16.21 2.59 16.56 2H7C4.24 2 2 4.23 2 6.98V12.96V13.96C2 16.71 4.24 18.94 7 18.94H8.5C8.77 18.94 9.13 19.12 9.3 19.34L10.8 21.33C11.46 22.21 12.54 22.21 13.2 21.33L14.7 19.34C14.89 19.09 15.19 18.94 15.5 18.94H17C19.76 18.94 22 16.71 22 13.96V7.44C21.41 7.79 20.73 8 20 8Z" />
<path d="M12 12C11.44 12 11 11.55 11 11C11 10.45 11.45 10 12 10C12.55 10 13 10.45 13 11C13 11.55 12.56 12 12 12Z" />
<path d="M16 12C15.44 12 15 11.55 15 11C15 10.45 15.45 10 16 10C16.55 10 17 10.45 17 11C17 11.55 16.56 12 16 12Z" />
<path d="M8 12C7.44 12 7 11.55 7 11C7 10.45 7.45 10 8 10C8.55 10 9 10.45 9 11C9 11.55 8.56 12 8 12Z" />
</svg>
